polaris-icons/icons/new-icons/AffiliateMajor.svg

<svg width="20" height="20" viewBox="0 0 20 20" fill="none" xmlns="http://www.w3.org/2000/svg">
<path fill-rule="evenodd" clip-rule="evenodd" d="M16.5 6C16.5 7.38071 15.3807 8.5 14 8.5C13.5828 8.5 13.1894 8.39779 12.8436 8.21705L9.94803 11.1126C10.2974 11.6572 10.5 12.3049 10.5 13C10.5 13.0077 10.5 13.0154 10.4999 13.0232L11.648 13.1507C11.9956 12.1881 12.9175 11.5 14 11.5C15.3807 11.5 16.5 12.6193 16.5 14C16.5 15.3807 15.3807 16.5 14 16.5C12.8452 16.5 11.8733 15.7171 11.5862 14.6531L10.1672 14.4954L10.1677 14.4904C9.60798 15.678 8.39998 16.5 7 16.5C5.067 16.5 3.5 14.933 3.5 13C3.5 11.4905 4.45559 10.2042 5.79483 9.71302L5.62563 8.47216C4.4225 8.29149 3.5 7.25348 3.5 6C3.5 4.61929 4.61929 3.5 6 3.5C7.38071 3.5 8.5 4.61929 8.5 6C8.5 6.9828 7.9329 7.83314 7.10807 8.24164L7.28119 9.51113C7.86956 9.5579 8.41695 9.75018 8.88737 10.052L11.7829 7.15639C11.6022 6.81058 11.5 6.41723 11.5 6C11.5 4.61929 12.6193 3.5 14 3.5C15.3807 3.5 16.5 4.61929 16.5 6ZM15 6C15 6.55228 14.5523 7 14 7C13.4477 7 13 6.55228 13 6C13 5.44772 13.4477 5 14 5C14.5523 5 15 5.44772 15 6ZM7 15C8.10457 15 9 14.1046 9 13C9 11.8954 8.10457 11 7 11C5.89543 11 5 11.8954 5 13C5 14.1046 5.89543 15 7 15ZM14 15C14.5523 15 15 14.5523 15 14C15 13.4477 14.5523 13 14 13C13.4477 13 13 13.4477 13 14C13 14.5523 13.4477 15 14 15ZM7 6C7 6.55228 6.55228 7 6 7C5.44772 7 5 6.55228 5 6C5 5.44772 5.44772 5 6 5C6.55228 5 7 5.44772 7 6Z" fill="#4A4A4A"/>
</svg>

<svg viewBox="0 0 20 20" xmlns="http://www.w3.org/2000/svg"><path fill-rule="evenodd" d="M16.5 6a2.5 2.5 0 0 1-3.656 2.217l-2.896 2.896c.35.544.552 1.192.552 1.887v.023l1.148.128a2.501 2.501 0 1 1-.062 1.502l-1.419-.158v-.005a3.5 3.5 0 1 1-4.372-4.777l-.17-1.24a2.5 2.5 0 1 1 1.483-.231l.173 1.27a3.48 3.48 0 0 1 1.606.54l2.896-2.896a2.5 2.5 0 1 1 4.717-1.156Zm-1.5 0a1 1 0 1 1-2 0 1 1 0 0 1 2 0Zm-8 9a2 2 0 1 0 0-4 2 2 0 0 0 0 4Zm7 0a1 1 0 1 0 0-2 1 1 0 0 0 0 2Zm-7-9a1 1 0 1 1-2 0 1 1 0 0 1 2 0Z" fill="#5C5F62"/></svg>
